X:1
T: 25 More or Less
C: \251Dave Wiesler 2014
R: waltz
N: "For Betsy Platt, from Jamie Platt"
M: 3/4
L: 1/8
Q:1/4=130
K: G
%%alignbars
z z2 |:"A"e3 ^c2 A |"G"d2 B2 z2|"A"e3 ^c2 e|"G"gf d2 z2|
"A"e3 ^c2 A|"G"d2 B2 G2| "D"(AF "/"D)"C"(G "/"EC)|"G"[D2G,2] z:|
|(GF G|:"C"E2) z (G FG|"G"D2) z G FG|"C"LGE GLA "D"D(Lc|"G"c)B G(G FG|
"C"E2) z G FG|"G"D2 z G FG| "C"GE GA "D"FD| "G"G2 z:|
%%text 2015-01-31
